X:64
%%etbk:tnset id:22,pos:2,rep:3x,ant:
%%etbk:wsite http://www.thesession.org/tunes/display/1010
%%etbk:pldat 2016-09-11T16:08,2016-07-21T18:35,2016-07-15T16:34,2016-07-09T14:14,2016-06-13T17:08,2016-05-24T16:28,2015-12-01T17:20,2015-11-28T16:45,2015-08-09T16:53,2015-01-25T17:34,2015-01-21T18:04,2015-01-07T17:36,2014-12-29T17:39,2014-12-20T14:19,2014-12-16T16:23,2014-12-03T17:32,2014-12-02T17:04,2014-11-26T16:42,2014-11-22T15:03,2014-11-15T15:46,2014-10-03T16:06,2014-09-22T18:12,2014-09-16T18:02,2014-09-13T16:20,2014-09-10T17:23,2014-09-08T18:17,2014-06-09T15:50,2014-06-07T15:50,2014-05-28T17:04,2014-05-19T18:43,2014-05-12T19:02,2014-05-08T18:45,2014-04-27T14:53,2014-04-08T18:38,2014-04-07T18:57,2014-04-02T17:02,2013-11-26T17:07,2013-11-16T14:42,2013-11-13T15:39
T: The Wheels Of The World
S: Martin Hayes
Z: Piano Box Version by Martin Fleischmann
H: Created 2013-02-19 /  Last Modified 2013-11-13
M: 4/4
L: 1/8
R: reel
K: Ddor
| "dm"!5!A!1!DDE !3!FAGF | "am"!2!E!1!C!2!C!1!C !2!EF!4!G!1!C | "dm"!5!A!1!D !3!(3D!2!D!1!D !2!F!3!A!5!d!4!e | !5!fedc !1!A!3!ddc |
!1!A!3!F!1!D!2!E !3!FAGF | "am"!2!E!1!C !3!(3C!2!C!1!C !2!EF!4!G!3!A | "dm"!3!A2!5!d!4!B !5!cBA!2!G | "am"!1!E!2!D!1!C!3!E "dm"!2!D4:|
"C"!1!ccc!2!e !4!g!2!e!1!c!2!e | "dm"!1!d2 !5!ad!5!bd!5!a!1!d | "am"!1!ccc!2!e !4!ge!1!c!1!d | !2!e!5!aag !2!e!1!d!2!c!1!B |
"am"!2!cz!1!c!2!e !4!g!2!e!1!c!2!e | "dm"!1!d2 !5!ad!5!bd!5!ad | "am"!5!agag !2!e^fge | !5!afge !1!d4:|
|"var bar 3"!5!A!1!DD!2!E !1!F!2!A!5!d!4!e|


